X:37
T:the night before
R:reel
C:Fabien Guiloineau
M:C|
K:D
Aded fd(3ddd)|f2fd edBd|Aded fd(3ddd)|gefd edBd|
Aded fd(3ddd)|f2fd edBd|Aded fd(3ddd)|1e2ef edd2:|2e2ef eddf||
~g2gf gfdg|~a2ag agdf|~g2gf gfdB|ABde fed2:|
